public/flags/CEU.svg

<svg fill="none" height="53" viewBox="0 0 61 53" width="61" xmlns="http://www.w3.org/2000/svg" xmlns:xlink="http://www.w3.org/1999/xlink"><mask id="a" height="43" maskUnits="userSpaceOnUse" width="59" x="1" y="3"><rect fill="#fff" height="42.5" rx="4.24286" width="59" x="1" y="3"/></mask><rect fill="#fff" height="42.5" rx="4.24286" width="59" x="1" y="3"/><g mask="url(#a)"><path d="m1 3h59v42.5h-59z" fill="#19bfbf"/><g clip-rule="evenodd" fill="#fff" fill-rule="evenodd"><path d="m37.0219 40.7436-2.1903-2.2089c-.077-.0776-.1349-.1721-.1693-.2759l-1.1933-3.6104c-.0951-.2875-.3638-.4817-.6666-.4817-.4562 0-.7912.4282-.6815.871l1.0932 4.4098c.0594.2396-.0104.4928-.1842.6681l-.6228.628c-.2766.279-.7276.279-1.0042 0l-.6977-.7035c-.1313-.1325-.205-.3114-.205-.4979v-2.3765c0-.109-.0252-.2165-.0736-.3141l-1.1363-2.2919c-.1193-.2407-.3648-.393-.6335-.393h-3.6074c-.1106 0-.2197.0259-.3184.0757l-2.3981 1.2092c-.1673.0844-.2943.2316-.3531.4095l-1.2211 3.6945c-.0588.1778-.1858.3251-.353.4094l-2.2299 1.1245c-.2003.1009-.4366.1009-.6368 0l-2.1024-1.0601c-.2384-.1203-.3887-.3645-.3887-.6315v-4.5241c0-.3905.3166-.7071.7071-.7071h2.8c.3905 0 .7071-.3166.7071-.7072v-2.0123c0-.0754.0121-.1504.0358-.222l1.2086-3.6567c.0957-.2896.3664-.4852.6714-.4852h2.1303c.1106 0 .2197-.0259.3184-.0757l2.5092-1.2652c.0987-.0498.2078-.0757.3183-.0757h1.9342c.3906 0 .7072-.3166.7072-.7072v-.4183c0-.1866.0737-.3655.205-.498l.5034-.5076c.3414-.3443.9202-.2507 1.1356.1838l.7706 1.5542c.1194.2408.3649.3931.6336.3931h3.2645c.3051 0 .5757-.1956.6715-.4853l1.084-3.2795c.0957-.2896.3663-.4852.6714-.4852h1.5913c.3906 0 .7072-.3178.7072-.7084 0-.3905-.3166-.7083-.7072-.7083h-1.3952c-.3906 0-.7072-.3166-.7072-.7072v-1.9605c0-.1089.0252-.2164.0736-.3141l1.1066-2.2319c.1343-.2709.0815-.5973-.1314-.812l-.5466-.5513c-.2767-.2789-.7277-.2789-1.0043 0l-2.1024 2.1202c-.1313.1325-.205.3114-.205.498v2.4283c0 .0754-.012.1503-.0357.2219l-1.2087 3.6567c-.0957.2896-.3663.4852-.6714.4852h-.5991c-.1885 0-.3693-.0753-.5021-.2092l-.9955-1.004c-.1293-.1303-.2018-.3064-.2018-.4899 0-.5184-.5463-.8547-1.0091-.6214l-1.3416.6765c-.2736.138-.6048.0841-.8206-.1335l-.8379-.8451c-.1314-.1324-.2051-.3114-.2051-.4979v-2.251c0-.1865.0737-.3655.2051-.4979l2.6045-2.6266 4.0963-4.131c.0776-.0782.1723-.1373.2768-.1724l3.9458-1.32639c.0726-.02441.1487-.03685.2253-.03685h2.2552c.2687 0 .5142.15229.6335.39303l1.1363 2.29191c.0484.0976.0736.2051.0736.3141v3.7931c0 .1865.0737.3655.205.4979l.8944.902c.1874.1889.2528.4671.1693.7198l-1.1003 3.3287c-.0995.3012.0136.6318.2769.8088l3.769 2.534 2.0995 1.0586c.378.1906.5049.6683.2715 1.0214l-2.2537 3.4093c-.0765.1157-.1173.2513-.1173.39v3.529c0 .3038-.1939.5736-.4818.6703l-3.4545 1.1613c-.178.0598-.3248.1879-.4082.3562l-1.2237 2.468c-.0337.0679-.078.13-.1314.1838l-2.2268 2.2457c-.2767.279-.7277.279-1.0043 0zm-12.1408-.9103c.7758 0 1.4048-.6342 1.4048-1.4166s-.629-1.4167-1.4048-1.4167-1.4048.6343-1.4048 1.4167.629 1.4166 1.4048 1.4166zm-4.2142-18.4166c0 .7824-.629 1.4166-1.4048 1.4166s-1.4048-.6342-1.4048-1.4166.629-1.4167 1.4048-1.4167 1.4048.6343 1.4048 1.4167z"/><path d="m21.9977 21.5651c.0484-.0976.0736-.2051.0736-.3141v-1.0853c0-.109-.0252-.2165-.0736-.3141l-.8249-1.6637c-.233-.47.109-1.0212.6336-1.0212h.9625c.3905 0 .7071.3166.7071.7071v3.3772c0 .109.0252.2165.0736.3141l.8249 1.6636c.233.4701-.109 1.0213-.6336 1.0213h-1.9345c-.5246 0-.8666-.5512-.6336-1.0213z"/></g></g></svg>

<svg width="61" height="53" viewBox="0 0 61 53" fill="none" xmlns="http://www.w3.org/2000/svg">
<rect x="1" y="3" width="59" height="42.5" rx="4.24286" fill="white"/>
<mask id="mask0" mask-type="alpha" maskUnits="userSpaceOnUse" x="1" y="3" width="59" height="43">
<rect x="1" y="3" width="59" height="42.5" rx="4.24286" fill="white"/>
</mask>
<g mask="url(#mask0)">
<rect x="1" y="3" width="59" height="42.5" fill="#19BFBF"/>
<path fill-rule="evenodd" clip-rule="evenodd" d="M37.0219 40.7436L34.8316 38.5347C34.7546 38.4571 34.6967 38.3626 34.6623 38.2588L33.469 34.6484C33.3739 34.3609 33.1052 34.1667 32.8024 34.1667C32.3462 34.1667 32.0112 34.5949 32.1209 35.0377L33.2141 39.4475C33.2735 39.6871 33.2037 39.9403 33.0299 40.1156L32.4071 40.7436C32.1305 41.0226 31.6795 41.0226 31.4029 40.7436L30.7052 40.0401C30.5739 39.9076 30.5002 39.7287 30.5002 39.5422V37.1657C30.5002 37.0567 30.475 36.9492 30.4266 36.8516L29.2903 34.5597C29.171 34.319 28.9255 34.1667 28.6568 34.1667H25.0494C24.9388 34.1667 24.8297 34.1926 24.731 34.2424L22.3329 35.4516C22.1656 35.536 22.0386 35.6832 21.9798 35.8611L20.7587 39.5556C20.6999 39.7334 20.5729 39.8807 20.4057 39.965L18.1758 41.0895C17.9755 41.1904 17.7392 41.1904 17.539 41.0895L15.4366 40.0294C15.1982 39.9091 15.0479 39.6649 15.0479 39.3979V34.8738C15.0479 34.4833 15.3645 34.1667 15.755 34.1667H18.555C18.9455 34.1667 19.2621 33.8501 19.2621 33.4595V31.4472C19.2621 31.3718 19.2742 31.2968 19.2979 31.2252L20.5065 27.5685C20.6022 27.2789 20.8729 27.0833 21.1779 27.0833H23.3082C23.4188 27.0833 23.5279 27.0574 23.6266 27.0076L26.1358 25.7424C26.2345 25.6926 26.3436 25.6667 26.4541 25.6667H28.3883C28.7789 25.6667 29.0955 25.3501 29.0955 24.9595V24.5412C29.0955 24.3546 29.1692 24.1757 29.3005 24.0432L29.8039 23.5356C30.1453 23.1913 30.7241 23.2849 30.9395 23.7194L31.7101 25.2736C31.8295 25.5144 32.075 25.6667 32.3437 25.6667H35.6082C35.9133 25.6667 36.1839 25.4711 36.2797 25.1814L37.3637 21.9019C37.4594 21.6123 37.73 21.4167 38.0351 21.4167H39.6264C40.017 21.4167 40.3336 21.0989 40.3336 20.7083C40.3336 20.3178 40.017 20 39.6264 20H38.2312C37.8406 20 37.524 19.6834 37.524 19.2928V17.3323C37.524 17.2234 37.5492 17.1159 37.5976 17.0182L38.7042 14.7863C38.8385 14.5154 38.7857 14.189 38.5728 13.9743L38.0262 13.423C37.7495 13.1441 37.2985 13.1441 37.0219 13.423L34.9195 15.5432C34.7882 15.6757 34.7145 15.8546 34.7145 16.0412V18.4695C34.7145 18.5449 34.7025 18.6198 34.6788 18.6914L33.4701 22.3481C33.3744 22.6377 33.1038 22.8333 32.7987 22.8333H32.1996C32.0111 22.8333 31.8303 22.758 31.6975 22.6241L30.702 21.6201C30.5727 21.4898 30.5002 21.3137 30.5002 21.1302C30.5002 20.6118 29.9539 20.2755 29.4911 20.5088L28.1495 21.1853C27.8759 21.3233 27.5447 21.2694 27.3289 21.0518L26.491 20.2067C26.3596 20.0743 26.2859 19.8953 26.2859 19.7088V17.4578C26.2859 17.2713 26.3596 17.0923 26.491 16.9599L29.0955 14.3333L33.1918 10.2023C33.2694 10.1241 33.3641 10.065 33.4686 10.0299L37.4144 8.70351C37.487 8.6791 37.5631 8.66666 37.6397 8.66666H39.8949C40.1636 8.66666 40.4091 8.81895 40.5284 9.05969L41.6647 11.3516C41.7131 11.4492 41.7383 11.5567 41.7383 11.6657V15.4588C41.7383 15.6453 41.812 15.8243 41.9433 15.9567L42.8377 16.8587C43.0251 17.0476 43.0905 17.3258 43.007 17.5785L41.9067 20.9072C41.8072 21.2084 41.9203 21.539 42.1836 21.716L45.9526 24.25L48.0521 25.3086C48.4301 25.4992 48.557 25.9769 48.3236 26.33L46.0699 29.7393C45.9934 29.855 45.9526 29.9906 45.9526 30.1293V33.6583C45.9526 33.9621 45.7587 34.2319 45.4708 34.3286L42.0163 35.4899C41.8383 35.5497 41.6915 35.6778 41.6081 35.8461L40.3844 38.3141C40.3507 38.382 40.3064 38.4441 40.253 38.4979L38.0262 40.7436C37.7495 41.0226 37.2985 41.0226 37.0219 40.7436ZM24.8811 39.8333C25.6569 39.8333 26.2859 39.1991 26.2859 38.4167C26.2859 37.6343 25.6569 37 24.8811 37C24.1053 37 23.4763 37.6343 23.4763 38.4167C23.4763 39.1991 24.1053 39.8333 24.8811 39.8333ZM20.6669 21.4167C20.6669 22.1991 20.0379 22.8333 19.2621 22.8333C18.4863 22.8333 17.8573 22.1991 17.8573 21.4167C17.8573 20.6343 18.4863 20 19.2621 20C20.0379 20 20.6669 20.6343 20.6669 21.4167Z" fill="white"/>
<path fill-rule="evenodd" clip-rule="evenodd" d="M21.9977 21.5651C22.0461 21.4675 22.0713 21.36 22.0713 21.251V20.1657C22.0713 20.0567 22.0461 19.9492 21.9977 19.8516L21.1728 18.1879C20.9398 17.7179 21.2818 17.1667 21.8064 17.1667H22.7689C23.1594 17.1667 23.476 17.4833 23.476 17.8738V21.251C23.476 21.36 23.5012 21.4675 23.5496 21.5651L24.3745 23.2287C24.6075 23.6988 24.2655 24.25 23.7409 24.25H21.8064C21.2818 24.25 20.9398 23.6988 21.1728 23.2287L21.9977 21.5651Z" fill="white"/>
</g>
</svg>
